X: 24340
T: Loughrea, The
R: polka
M: 2/4
K: Gmajor
GD G>A|Bd ed|eg/e/ dB|AG E2|
GD GG/A/|B/c/d ed|e/f/g/e/ dB|AG G:|
Bd ed|gd/g/ ed|eg/e/ dB|A/B/A/G/ ED|
B/c/d e2|g/a/g/f/ ed|eg dc/B/|AG G:|

